src/assets/icon-sound-off.svg

<svg fill="none" viewBox="0 0 260 260" xmlns="http://www.w3.org/2000/svg"><g fill="currentColor"><path d="m112.71 54.4448c-.978-.4219-2.059-.5473-3.108-.3606-1.048.1866-2.019.6771-2.792 1.4106l-43 40.72h-38.36c-1.4454 0-2.8317.5742-3.8537 1.5963-1.0221 1.0221-1.5963 2.4079-1.5963 3.8539v57.2c0 .715.141 1.423.415 2.084.2741.661.6757 1.261 1.1819 1.766s1.1071.906 1.7682 1.179c.6612.272 1.3697.412 2.0849.411h38.35l43 40.72c.775.737 1.75 1.23 2.803 1.416s2.138.058 3.118-.369c.981-.427 1.814-1.133 2.395-2.031.582-.898.886-1.947.874-3.016v-141.5702c.001-1.0638-.309-2.1047-.892-2.9948-.583-.89-1.413-1.5904-2.388-2.0152z"/><path d="m205 130.265 33.21-33.2602c.865-.8285 1.557-1.8215 2.033-2.9207.477-1.0992.73-2.2826.743-3.4806.013-1.1981-.213-2.3867-.665-3.4962-.452-1.1096-1.121-2.1177-1.968-2.9652-.847-.8476-1.855-1.5175-2.964-1.9705s-2.297-.6799-3.495-.6676c-1.199.0124-2.382.2638-3.482.7396-1.099.4758-2.093 1.1664-2.922 2.0312l-33.24 33.2602-33.25-33.2402c-1.714-1.5406-3.953-2.3653-6.256-2.3042-2.304.0611-4.496 1.0035-6.125 2.6329-1.63 1.6293-2.572 3.8216-2.633 6.1251s.763 4.5427 2.304 6.2562l33.23 33.2402-33.23 33.23c-1.691 1.685-2.643 3.973-2.646 6.361-.004 2.387.941 4.678 2.626 6.369s3.974 2.643 6.361 2.646c2.387.004 4.678-.941 6.369-2.626l33.25-33.22 33.24 33.24c.829.865 1.823 1.555 2.922 2.031 1.1.476 2.283.727 3.482.74 1.198.012 2.386-.215 3.495-.668s2.117-1.123 2.964-1.97c.847-.848 1.516-1.856 1.968-2.966.452-1.109.678-2.298.665-3.496s-.266-2.381-.743-3.48c-.476-1.1-1.168-2.093-2.033-2.921z"/></g></svg>

<svg viewBox="0 0 260 260" fill="none" xmlns="http://www.w3.org/2000/svg">
<path d="M112.71 54.4448C111.732 54.0229 110.651 53.8975 109.602 54.0842C108.554 54.2708 107.583 54.7613 106.81 55.4948L63.81 96.2148H25.45C24.0046 96.2148 22.6183 96.789 21.5963 97.8111C20.5742 98.8332 20 100.219 20 101.665L20 158.865C20 159.58 20.141 160.288 20.415 160.949C20.6891 161.61 21.0907 162.21 21.5969 162.715C22.1031 163.22 22.704 163.621 23.3651 163.894C24.0263 164.166 24.7348 164.306 25.45 164.305H63.8L106.8 205.025C107.575 205.762 108.55 206.255 109.603 206.441C110.656 206.627 111.741 206.499 112.721 206.072C113.702 205.645 114.535 204.939 115.116 204.041C115.698 203.143 116.002 202.094 115.99 201.025V59.4548C115.991 58.391 115.681 57.3501 115.098 56.46C114.515 55.57 113.685 54.8696 112.71 54.4448V54.4448Z" fill="#F7EED9"/>
<path d="M205 130.265L238.21 97.0048C239.075 96.1763 239.767 95.1833 240.243 94.0841C240.72 92.9849 240.973 91.8015 240.986 90.6035C240.999 89.4054 240.773 88.2168 240.321 87.1073C239.869 85.9977 239.2 84.9896 238.353 84.1421C237.506 83.2945 236.498 82.6246 235.389 82.1716C234.28 81.7186 233.092 81.4917 231.894 81.504C230.695 81.5164 229.512 81.7678 228.412 82.2436C227.313 82.7194 226.319 83.41 225.49 84.2748L192.25 117.535L159 84.2948C157.286 82.7542 155.047 81.9295 152.744 81.9906C150.44 82.0517 148.248 82.9941 146.619 84.6235C144.989 86.2528 144.047 88.4451 143.986 90.7486C143.925 93.0521 144.749 95.2913 146.29 97.0048L179.52 130.245L146.29 163.475C144.599 165.16 143.647 167.448 143.644 169.836C143.64 172.223 144.585 174.514 146.27 176.205C147.955 177.896 150.244 178.848 152.631 178.851C155.018 178.855 157.309 177.91 159 176.225L192.25 143.005L225.49 176.245C226.319 177.11 227.313 177.8 228.412 178.276C229.512 178.752 230.695 179.003 231.894 179.016C233.092 179.028 234.28 178.801 235.389 178.348C236.498 177.895 237.506 177.225 238.353 176.378C239.2 175.53 239.869 174.522 240.321 173.412C240.773 172.303 240.999 171.114 240.986 169.916C240.973 168.718 240.72 167.535 240.243 166.436C239.767 165.336 239.075 164.343 238.21 163.515L205 130.265Z" fill="#F7EED9"/>
</svg>
